icons/noun_39536_cc.svg

<?xml version="1.0" encoding="UTF-8" standalone="no"?>
<svg
   xmlns:dc="http://purl.org/dc/elements/1.1/"
   xmlns:cc="http://creativecommons.org/ns#"
   xmlns:rdf="http://www.w3.org/1999/02/22-rdf-syntax-ns#"
   xmlns:svg="http://www.w3.org/2000/svg"
   xmlns="http://www.w3.org/2000/svg"
   xmlns:sodipodi="http://sodipodi.sourceforge.net/DTD/sodipodi-0.dtd"
   xmlns:inkscape="http://www.inkscape.org/namespaces/inkscape"
   version="1.1"
   x="0px"
   y="0px"
   viewBox="0 0 68.310996 68.310997"
   enable-background="new 0 0 90 90"
   xml:space="preserve"
   id="svg2"
   inkscape:version="0.91 r13725"
   sodipodi:docname="noun_39536_cc.svg"
   width="68.310997"
   height="68.310997"
   inkscape:export-filename="/home/saedelaere/Projekte/content/labpowerqt/icons/application32.png"
   inkscape:export-xdpi="42.160122"
   inkscape:export-ydpi="42.160122"><metadata
     id="metadata16"><rdf:RDF><cc:Work
         rdf:about=""><dc:format>image/svg+xml</dc:format><dc:type
           rdf:resource="http://purl.org/dc/dcmitype/StillImage" /><dc:title></dc:title></cc:Work></rdf:RDF></metadata><defs
     id="defs14" /><sodipodi:namedview
     pagecolor="#ffffff"
     bordercolor="#666666"
     borderopacity="1"
     objecttolerance="10"
     gridtolerance="10"
     guidetolerance="10"
     inkscape:pageopacity="0"
     inkscape:pageshadow="2"
     inkscape:window-width="1920"
     inkscape:window-height="1024"
     id="namedview12"
     showgrid="false"
     fit-margin-top="0"
     fit-margin-left="0"
     fit-margin-right="0"
     fit-margin-bottom="0"
     inkscape:zoom="2.0977778"
     inkscape:cx="24.15"
     inkscape:cy="19.306"
     inkscape:window-x="0"
     inkscape:window-y="27"
     inkscape:window-maximized="1"
     inkscape:current-layer="svg2" /><g
     id="g4"
     transform="translate(-7.0258475,-6.7682991)"><path
       d="m 61.747,24.599 -3.355,1.351 -18.425,7.42 14.178,-23.661 1.477,-2.464 -2.873,0 -14.266,0 -1.102,0 -0.409,1.024 -14.747,36.903 -1.375,3.442 3.465,-1.316 18.802,-7.141 -3.438,17.051 -1.989,-1.919 -3.776,-3.643 1.051,5.141 3.206,15.676 0.632,3.093 2.153,-2.309 12.342,-13.237 5.078,-5.446 -6.888,2.831 -1.671,0.687 10.716,-30.075 1.214,-3.408 z M 47.058,60.975 52.107,58.9 39.765,72.136 36.56,56.46 40.687,60.442 45.295,37.588 23.737,45.776 38.483,8.873 52.748,8.873 36.079,36.69 59,27.46 47.058,60.975 Z"
       id="path6"
       inkscape:connector-curvature="0" /></g></svg>

<?xml version="1.0" encoding="UTF-8" standalone="no"?>
<svg
   xmlns:dc="http://purl.org/dc/elements/1.1/"
   xmlns:cc="http://creativecommons.org/ns#"
   xmlns:rdf="http://www.w3.org/1999/02/22-rdf-syntax-ns#"
   xmlns:svg="http://www.w3.org/2000/svg"
   xmlns="http://www.w3.org/2000/svg"
   xmlns:sodipodi="http://sodipodi.sourceforge.net/DTD/sodipodi-0.dtd"
   xmlns:inkscape="http://www.inkscape.org/namespaces/inkscape"
   version="1.1"
   x="0px"
   y="0px"
   viewBox="0 0 68.310996 68.310997"
   enable-background="new 0 0 90 90"
   xml:space="preserve"
   id="svg2"
   inkscape:version="0.92.1 r"
   sodipodi:docname="noun_39536_cc.svg"
   width="72.865067"
   height="72.865067"
   inkscape:export-filename="/home/saedelaere/Projekte/content/labpowerqt/icons/application32.png"
   inkscape:export-xdpi="42.16"
   inkscape:export-ydpi="42.16"><metadata
     id="metadata16"><rdf:RDF><cc:Work
         rdf:about=""><dc:format>image/svg+xml</dc:format><dc:type
           rdf:resource="http://purl.org/dc/dcmitype/StillImage" /><dc:title /></cc:Work></rdf:RDF></metadata><defs
     id="defs14" /><sodipodi:namedview
     pagecolor="#ffffff"
     bordercolor="#666666"
     borderopacity="1"
     objecttolerance="10"
     gridtolerance="10"
     guidetolerance="10"
     inkscape:pageopacity="0"
     inkscape:pageshadow="2"
     inkscape:window-width="1920"
     inkscape:window-height="1053"
     id="namedview12"
     showgrid="false"
     fit-margin-top="0"
     fit-margin-left="0"
     fit-margin-right="0"
     fit-margin-bottom="0"
     inkscape:zoom="1.4833529"
     inkscape:cx="-11.559904"
     inkscape:cy="104.43866"
     inkscape:window-x="0"
     inkscape:window-y="27"
     inkscape:window-maximized="1"
     inkscape:current-layer="layer2" /><g
     id="g4"
     transform="translate(-7.0258475,-6.7682991)"
     style="display:inline" /><g
     inkscape:groupmode="layer"
     id="layer1"
     inkscape:label="Layer 1"><path
       transform="translate(-7.0258475,-6.7682991)"
       d="M 61.747,24.599 58.392,25.95 39.967,33.37 54.145,9.709 55.622,7.245 H 52.749 38.483 37.381 l -0.409,1.024 -14.747,36.903 -1.375,3.442 3.465,-1.316 18.802,-7.141 -3.438,17.051 -1.989,-1.919 -3.776,-3.643 1.051,5.141 3.206,15.676 0.632,2.776993 L 40.956,73.247 53.298,60.01 58.376,54.564 51.488,57.395 49.817,58.082 60.533,28.007 Z M 47.058,60.975 52.107,58.9 39.765,72.136 36.56,56.46 40.687,60.442 45.295,37.588 23.737,45.776 38.483,8.873 H 52.748 L 36.079,36.69 59,27.46 Z"
       id="path6"
       inkscape:connector-curvature="0"
       style="display:inline;fill:#cccccc"
       sodipodi:nodetypes="cccccccccccccccccccccccccccccccccccccc" /></g><g
     inkscape:groupmode="layer"
     id="layer2"
     inkscape:label="Layer 2"><path
       transform="translate(-7.0258475,-6.7682991)"
       style="display:inline;fill:#b3b3b3;fill-rule:evenodd;stroke:#747474;stroke-width:0.93749994px;stroke-linecap:butt;stroke-linejoin:miter;stroke-opacity:1"
       d="M 38.483,8.873 H 52.747999 L 36.079,36.69 59,27.46 47.058,60.975 52.107,58.899999 39.765,72.136 36.56,56.46 40.687,60.441999 45.295,37.588 23.737,45.776 Z"
       id="path4769"
       inkscape:connector-curvature="0" /></g></svg>
